Pods/ProtonCore-UIFoundations/libraries/UIFoundations/Sources/Assets.xcassets/Images/IconSet/ic-link.imageset/ic-link.svg

<svg width="24" height="24" viewBox="0 0 24 24" fill="none" xmlns="http://www.w3.org/2000/svg">
<path fill-rule="evenodd" clip-rule="evenodd" d="M13.5347 3.03964C15.5849 0.989392 18.909 0.989388 20.9593 3.03964C23.0095 5.08989 23.0095 8.41401 20.9593 10.4643L17.3034 14.1201C17.0105 14.413 16.5357 14.413 16.2428 14.1201C15.9499 13.8272 15.9499 13.3524 16.2428 13.0595L19.8986 9.4036C21.3631 7.93914 21.3631 5.56477 19.8986 4.1003C18.4342 2.63584 16.0598 2.63584 14.5953 4.1003L10.9395 7.75617C10.6466 8.04906 10.1717 8.04906 9.8788 7.75617C9.58591 7.46327 9.58591 6.9884 9.8788 6.69551L13.5347 3.03964ZM15.1817 8.81738C15.4746 9.11027 15.4746 9.58514 15.1817 9.87804L9.8784 15.1813C9.5855 15.4742 9.11063 15.4742 8.81774 15.1813C8.52484 14.8884 8.52484 14.4136 8.81774 14.1207L14.121 8.81738C14.4139 8.52448 14.8888 8.52448 15.1817 8.81738ZM3.04355 20.9548C5.0938 23.0051 8.41792 23.0051 10.4682 20.9548L14.1274 17.2956C14.4203 17.0027 14.4203 16.5278 14.1274 16.2349C13.8346 15.942 13.3597 15.942 13.0668 16.2349L9.40751 19.8942C7.94305 21.3587 5.56867 21.3587 4.10421 19.8942C2.63974 18.4297 2.63974 16.0554 4.10421 14.5909L7.76349 10.9316C8.05638 10.6387 8.05638 10.1638 7.76349 9.87095C7.47059 9.57805 6.99572 9.57805 6.70283 9.87095L3.04355 13.5302C0.993297 15.5805 0.993296 18.9046 3.04355 20.9548Z" fill="#0C0C14"/>
</svg>

<svg xmlns="http://www.w3.org/2000/svg" width="24" height="24" viewBox="0 0 24 24">
  <g class="ic-link">
    <path fill-rule="evenodd" d="M13.537 3.04a5.25 5.25 0 1 1 7.424 7.424l-3.656 3.656a.75.75 0 0 1-1.06-1.06L19.9 9.403A3.75 3.75 0 0 0 14.597 4.1l-3.656 3.656a.75.75 0 1 1-1.06-1.06l3.656-3.656Zm1.647 5.777a.75.75 0 0 1 0 1.061L9.88 15.181a.75.75 0 0 1-1.06-1.06l5.303-5.304a.75.75 0 0 1 1.06 0ZM3.046 20.955a5.25 5.25 0 0 0 7.424 0l3.66-3.66a.75.75 0 0 0-1.061-1.06l-3.66 3.66a3.75 3.75 0 1 1-5.303-5.304l3.66-3.66a.75.75 0 1 0-1.061-1.06l-3.66 3.66a5.25 5.25 0 0 0 0 7.424Z" class="Icon"/>
  </g>
</svg>
